X:16
T:Blackbird, The
R:slow air
H:See also set dance #8
D:Bothy Band
Z:id:hn-slowair-16
M:4/4
L:1/8
Q:1/4=80
K:Dmix
dc |: B3A/B/ c3B/G/ | A4- AA/G/A/B/c/A/ | d3(3e/d/c/ A3F |
GA/B/ A>F D3E | F2GA f3e | d2ef/d/ A3F | G2AB A3F |1 D6 GA :|2 D6 ||
|: de | f3e d>ef>g | a4 g2 f/g/a/f/ | g2ab a3f | d6 eg |
f3e d>ef>g | a4 g2 f/g/a/f/ | g3f d2(3efg | a4 g2 f/g/a/f/ |
g3e f3e | d/c/A/B/ c2 B//A//B//c//d//e//f//g//a//b// Ha3/ |
A3G/E/ F3G/E/ | c2(3cBc d/c/A2F | G2AB A3F D6 :|

